!!!OTL: Rache im Zweikampf Derrier' chez nous il-y-a-t-un capitaine
!!!ARE: Europa, Mitteleuropa, France, franzoesische Alpen, Haut Savoie, Faucigny
!!!YOR: 5, S. 105
!!    1903 gedruckt in Grenoble und Moutiers
!!!SCT: Q2097D
!!!YEM: Copyright 1995, estate of Helmut Schaffrath.
**kern
*ICvox
*Ivox
*M3/8
*k[]
*C:
=1
{8cc
8cc
8cc
=2
8cc
8a
8b
=3
8cc
8b
8a
=4
4g
8g}
=5
{8cc
8cc
8cc
=6
8cc
8a
8b
=7
8cc
8b
8a
=8
8g
8r}
{8a
=9
4g
8f
=10
4e
8r
=11
8cc
8dd
8ee
=12
4ee
8dd
=13
8dd
8cc}
{8ee
=14
4g
8f
=15
4.e
=16
8a
8b
8a
=17
8g
8b
8dd
=18
4.cc}
==
!!!AGN: Ballade, Frau in Maennerkleidung, Soldat, Betrug, Rache
!! Franzoesische Fassung der Ballade.
!!!ONB: ESAC (Essen Associative Code) Database: BALLADE
!!!AMT: simple triple
!!!AIN: vox
!!!EED: Helmut Schaffrath
!!!EEV: 1.0
*-
